X: 35246
T: Roscommon, The
R: reel
M: 4/4
K: Edorian
|:EFGA BAGB|AF~F2 dFAF|EFGA B2dB|AFDE FE~E2:|
eB~B2 efge|fa~a2 bfaf|eB~B2 efge|fagf efgf|
eB~B2 efge|fa~a2 bfaf|~g3e ~f3e|dBAF EFGA||
B2BA BcdB|AF~F2 BFAF|B2BA BcdB|AFDE FE~E2|
B2BA BcdB|AF~F2 BFAF|EFGA B2dB|AFDE FE~E2||

